X:1
T:Mozart Flute Quartet in D K285
T:Mozart Flute Quartet in D K285 
T:for Flute and Piano
T:Wolfgang Amedeus Mozart
T:Arr. Heinz Stobla
C:Wolfgang Amedeus Mozart
Z:Arr. Heinz Stobla
%%score { ( 1 3 ) | ( 2 4 ) }
L:1/8
Q:1/4=110
M:4/4
K:D
V:1 treble nm="Piano" snm="Pno."
V:3 treble 
V:2 bass 
V:4 bass 
V:1
"^Allegro"!f! z [A,F][A,F][A,F] [A,F][A,F][A,F][A,F] | z [A,F][A,F][A,F] [A,F][A,F][A,F][A,F] | %2
 z [B,G][B,G][B,G] [B,G][B,G][B,G][B,G] | [A,F]2 z A (AF)(FD) | z (Ace) (gefd) | A8 | %6
 ([DF][CE])([EG][DF]) ([FA][EG])([DF][CE]) | ([EG][DF])([GB][FA]) .[FA].A.F.D | z A,CE GEFD | %9
 z Ace gefd | z [EGc][EGc][EGc] [EGc][EGc][EGc][EGc] | [FAd]2 z2 z2 z .A, | %12
 ([F,A,][A,D]).[A,F].[A,F] .[A,F]3 ([B,G]/[G,E]/) | ((T[G,E][F,D])).[F,D].[F,D] D3 D | %14
 ([B,D][DG]).[GB].[GB] [GB]3 ([Bd]/[GB]/) | (T[GB][FA]).[FA].[FA] A4 | ([DB]>cd).d d2 d2 | %17
 d4 D2 D2 | .D/(F/^E/F/) (E/F/E/F/) (E/F/).G/.F/ z A | (dB).G.G G3 A/F/ | (TFE).E.E (E3 =F) | %21
 (F3 G/F/ E2) z G | (G3 A/G/ F2) z E | D/F/G/A/ B/c/d/e/ (f/e/f/e/)fz/d/ | Td2 c .A .^G.A.B.c | %25
!p! ([Ac]AcA) (cAcA) | (dA) c!f! .A .^G.A.B.c |!p! ([Ac]AcA) (cAcA) | (B^G) A!f! .A .G.A.B.c | %29
 A(CEA) ([Ac]A).e.[Ae] | F(DFB) ([Fd]B).f.[^Af] | B(B,DF) ([FB]F).B.[FB] | %32
 [E^GB][EGB][EGB][EGB] [EGB][EGB][EGB][EGB] | [EAc][EAc][EAc][EAc] [EAc][EAc][EAc][EAc] | %34
 [E^GB][EGB][EGB][EGB] [EGB][EGB][EGB][EGB] | [EAc][EAc][EAc][EAc] [EAc][EAc][DGe][DGe] | %36
 [Fe](cde) (d4 | d)(Bcd) c4- | c(ABc) [EB]2 z [EB] | [EAc]2 z2 [Ec]2 z2 | %40
 .[EA]([EA][G^A])([GA] [FB]) ([FB]2 [=AB]) | ([Ac][Bd]).[ce].[ce] ([Bd][^GB])([GB][DG]) | %42
 [CEA]2 z2 (a^g).f.e |!p! .e2 .[ce]2 ([ce]2 [df]2) | ([ce]2 [Bd]2) ([Ee][Bd])[Ac][^GB] | %45
!p! A2 ([E^G]2 [DF]2 [FB]2) | ([EA]2 ^G2) (a^g).f.e |!p! .e2 .[ce]2 ([ce]2 [df]2) | %48
 ([ce]2 [Bd]2) ([Ee][Bd]).[Ac].[^GB] |!p! (A2 [FB]2) ([EA]2 T[D^G]2) |!f! A2 z2 z4 | %51
 A4{A} ^GF/E/ FG | .A.c .e2 z4 | A4{A} ^GF/E/ (F/A/).G/.B/ | (Ac).e.e (Ac).e.e | %55
 (dB).F.F (E^G).[GB].[GB] | A2 (A4 ^G2) | z/ (A/^G/A/ B/A/G/A/) z/ (G/F/G/ A/G/F/G/) | %58
 z/ (F/E/F/ G/F/E/F/) z/ (^G/F/G/ A/G/F/G/) |"_decresc." (AecA) (GEAG) | (FfdB) (^GEBG) | %61
!p! (A3 B/c/ d3 c/B/) | (A3 B/c/ d3 c/B/) | A2 z2!pp! [CE]2 z2 | [CE]4 z4 || %65
!f! z ([=CE][=ce]).[ce] .[ce]([CA][Ec][E^G]) | z ([=CA][A=c]).[Ac] .[Ac]([CE][EA][CE]) | %67
 z ([^G,B,][=F^G]).[F=G] z ([DG][d=f]).[df] | z ([B,D][Bd]).[Bd] ([A=c][EA])([=CE][A,C]) | %69
!p! z (B,FA) (^GABG) | z (E^GA) (^deB=c) | z [D=F][DF][DF] [CE][CE][B,D][B,D] | %72
!f! =C2 (^C[B,D]/[CE]/) D2!p! ([EA]2 | [FA])[Fd][Fd][Fd] [E=c][Ec][DB][DB] | %74
!f! A3 x/ x/ x2!p! x =c | =cB (A4 ^G2) | [A,A]2 (.[=CE]2 .[CE]2 .[CE]2) | %77
 z2 (.[_B,=CE]2 .[B,CE]2 .[B,CE]2) | ([A,=C][C=F]).[FA].[FA] [FA]3 ([A=c]/[G_B]/) | %79
 (T[=FA][EG]).[EG].[EG] [EG]2 z [G,=C] | ([=CE][EG]).[G_B].[GB] [GB]3 [Bd]/[A=c]/ | %81
 (T[G_B][=FA]).[FA].[FA] ([FA][A=c][GB][EG]) | [=C=F]2 z2 z [CF][CF][CF] | %83
 [G,D=F]2 z2 z [DFG][DFG][DFG] | [=C=FA]2 z [CFA] [CG_B]2 z [CGB] | [=C=FA]2 z2 z4 | %86
 ([=F,A,][A,D]).[D=F].[DF] [DF]3 ([FA]/[EG]/) | (T[D=F][CE]).[CE].[CE] [CE]2 z [E,A,] | %88
 ([E,C][CE]).[EG].[EG] G3 (_B/A/) | (TGF).F.F ([_EF][A=c][G_B][FA]) | [DG]2 z2 z [DG][DG][DG] | %91
 [D=FA] z z2 z [DFA][DFA][DFA] | _B4 =B4 | [EA]2 ([CE]2 [D=F]2 [EG]2) | [D=F]8 | %95
 [CE]2 ([CE]2 [D=F]2 [EG]2) | [D=F]8 | [CE]!f!(CDE =F^FG^G) | A2 z2 z4 | %99
 z [A,F][A,F][A,F] [A,F][A,F][A,F][A,F] | z [A,F][A,F][A,F] [A,F][A,F][A,F][A,F] | %101
 z [B,G][B,G][B,G] [B,G][B,G][B,G][B,G] | [A,F]2 z A (AF)(FD) | A,(A,DF) (AGFD) | FE (E4 F2) | %105
 ([DF][CE])([EG][DF]) ([FA][EG])([DF][CE]) | ([EG][DF])([GB][FA]) [FA]2 z2 | %107
 z ([DF][EG][FA]) ([EG][DF][CE][DF]) | ([EG][FA][EG][DF]) ([EG][CE])([B,D][DB]) | %109
 (dB).G.G G3 (A/F/) | (TFE).E.E E2 z D | ([Bd]B).G.G G3 (A/F/) | (TFE).E.E E2 z D | %113
 [DB][DB][DB][DB] [EB][EB][EB][EB] | [A,EGA][A,EGA][A,EGA][A,EGA] [A,EGA][A,EGA][A,EGA][A,EGA] | %115
 [A,DFA][A,DFA][A,DFA][A,DFA] [A,DFA][A,DFA][A,DFA][A,DFA] | %116
 [A,DFA][A,DFA][A,DFA][A,DFA] [A,DFA][A,DFA][A,DFA][A,DFA] | %117
 [A,CEA][A,CEA][A,CEA][A,CEA] [A,CEA][A,CEA][A,CEA][A,CEA] | %118
 [A,CEG][A,CEG][A,CEG][A,CEG] [A,CEG][A,CEG][A,CEG][A,CEG] | F d2 d c c2 c | %120
 =c c2 c [GB][GB][EG][EG] | [DF] z [DA] z [DB] z [Dd] z | [Ad][Ad][Ad][Ad] [GAd][GAd][GAc][GAc] | %123
 [FAd]2 z2 (dc).B.A | .A2 .A2 (A2 B2) | ([FA]2 [EG]2) (AG).F.E |!p! D2 ([A=c]2 [GB]2 [Be]2) | %127
 (d2 c2) (BA).G.F |!p! .F.F.F.F .F.F(FG) | (F2 E2) (ag).f.e | %130
!p! .d.[=cd]([Bd][eg]) ([df]2 T[^ce]2) |!f! d[FA][FA][FA] [GA][GA][GA][GA] | %132
 [FA][FA][FA][FA] [GA][GA][GA][GA] | [FA][FA][FA][FA] GGGG | [FA][FA][FA][FA] [GA][GA][GA][GA] | %135
 ([DFA]F).A.A (DF).A.A | x x x x (B3 A/G/) | FA (d4 c2) | z/ d/c/d/ e/d/c/d/ z/ =c/B/c/ d/c/B/c/ | %139
 z/ B/A/B/ A/G/F/G/ z/ E/D/E/ D/C/B,/C/ |"_decresc." (D7 E/F/) | (G7 F/E/) |!p! (DFA=c) (BGE^c) | %143
 (BFA=c) (BGE^c) | [Dd]2 z2 D2 z2 | [A,D]2 z2 z2 z!f! A, | ([A,D][DF]).[FA].[FA] [FA]3 [EG]/[DF]/ | %147
 (^AB).B.B !fermata!B2 z!p! E | (F[FA]).[DF].[DF] [DF]3 ([EG]/[CE]/) | %149
 ([G,C][F,D]) z .D!f! .C.D.E.F | D2 x3/2 x/ x2{a} gf/g/ | [Af]2 z .D .C.D.E.F | %152
 D2 x3/2 x/ x2{a} gf/g/ | [Af]2 D>D D2 z2 |] %154
V:2
 [D,,D,]D,D,D, D,D,D,D, | [D,,D,]D,D,D, D,D,D,D, | [D,,D,]D,D,D, D,D,D,D, | %3
 [D,,D,]2 z A, (A,F,)(F,D,) | [A,,A,]2 z2 z4 | A,,(A,CE) (GEFD) | A,2 A,2 A,2 A,2 | %7
 D,4 z .A,.F,.D, | A,,2 z2 z4 | A,,2 z2 z4 | z A,A,A, A,A,A,A, | .D.D.F.D .A,.D.F,.A, | %12
 D,2 z2 z2 A,,2 | B,,2 B,,2 B,,2 A,,2 | G,,2 D,2 B,,2 G,,2 | D,2 z2 D2 C2 | B,6 A,2 | %17
 (B,>CD).D x4 | A,A,A,A, A,A,A,A, | ([B,D]B,).B,.B, B,B,A,A, | G,G,G,G, ^G,G,G,G, | %21
 A,A,A,A, A,A,A,A, | A,A,A,A, A,A,[A,B,][A,C] | D4 B,4 | A,2 z!f! .A, .^G,.A,.B,.C | A,2 z2 z4 | %26
 z2 z .A, .^G,.A,.B,.C | A,2 z2 z4 | z2 z .A, .^G,.A,.B,.C | A,2 z C C,2 z2 | D,2 z D D,2 z2 | %31
 D,2 z D D,2 ^D,2 | E,2 z2 z4 | z2 !>!E z !>!C z !>!A, z | !>!E,2 z2 z4 | %35
 z2 !>!E z !>!C z !>!B, z | .C(EDC) x4 | .B,(DCB,) x4 | .A,(CB,A,) x4 | A,2 z2 A,,2 z2 | %40
 C,C,C,C, D,D,D,D, | E,E,E,E, E,E,E,E, | A,,2 z2 (FE).D.C | .C2 .F,2 (^A,2 F,2) | B,4 (^G,2 E,2) | %45
 F,2 (C,2 D,2 B,,2) | E,4 (FE).D.C | .C2 .F,2 (^A,2 F,2) | B,4 ^G,2 E,2 | F,2 D,2 E,4 | %50
 A,,2 A,2 E2 E,2 | [CE][CE][CE][CE] DD[DE][DE] | [CE][CE][CE][CE] DD[DE][DE] | %53
 [CE][CE][CE][CE] DD[DE][DE] | [C,C]2 C2 C,2 C2 | D,2 D2 [^G,B,][G,B,]E,E, | A,A,C,C, D,D,E,E, | %57
[K:treble] CECE CECE | DADA B,EB,D | z/ (C/B,/C/ D/C/B,/C/) z/ (E/D/E/ F/E/D/E/) | %60
 z/ (D/C/D/ E/D/C/D/) z/ (B,/A,/B,/ C/B,/A,/B,/) | (CEGE) (FDB,^G) | z (CEG) (FDB,^G) | %63
[K:bass] A,2 z2 A,2 z2 | A,4 z4 || A,4 E,4 | =F,4 =C,4 | D,4 B,,3 A,, | ^G,,4 A,,2 z2 | %69
 B,2 z2 E,2 z2 | A,2 z2 A,2 z2 | D,4 E,4 | A,4 A,2 z2 | D,4 E,4 | =C2 ^CD/E/ A,2 z2 | D,4 E,4 | %76
 A,,2 (.A,2 .A,2 .A,2) | z2 (.G,2 .G,2 .G,2) | =F,2 z2 z2 A,,2 | =C,2 =C2 G,2 E,2 | %80
 =C,2 z2 z2 E,2 | (=F,A,).=C.C C3 (_B,/G,/) | A,2 z2 z A,,A,,A,, | _B,,2 z2 z B,,B,,B,, | %84
 =C,2 z C, C,2 z C, | =F,2 z2 z4 | D,2 z2 z2 D,2 | A,,2 A,2 E,2 C,2 | G,,2 z2 z2 C,2 | %89
 (=C,A,).=C.C C3 (D/C/) | _B,2 z2 z B,B,B, | A,2 z2 z A,A,A, | G,4 ^G,4 | A,8 | z A,A,A, A,A,A,A, | %95
 A,8 | z A,A,A, A,A,A,A, | A,(C,D,E, =F,^F,G,^G,) | A,2 z2 z4 | [D,,D,]D,D,D, D,D,D,D, | %100
 [D,,D,]D,D,D, D,D,D,D, | [D,,D,]D,D,D, D,D,D,D, | [D,,D,]2 z A, (A,F,)(F,D,) | A,,2 z2 z4 | %104
 A,,(A,CE) z4 | A,2 A,2 A,2 A,2 | D,4 z .A,.F,.D, | A,,2 z2 z4 | z2 (A,2 ^A,2 B,2) | %109
 [B,,G,]2 z2 .[B,D]2 .[A,C]2 | [G,B,]2 z2 .B,,2 .A,,2 | G,,2 z2 .[B,D]2 .[G,B,]2 | %112
 [G,B,]2 z2 .B,,2 .A,,2 | G,,G,G,G, G,G,^G,G, | A,2 z2 z4 | z2 !>!A, z !>!F, z !>!D, z | %116
 !>!A,,2 z2 z4 | z2 !>!G, z !>!E, z !>!C, z | !>!A,,2 z2 z4 | D,D,D,D, D,D,D,D, | %120
 D,D,D,D, D,D,D,D, | D, z F, z G, z B, z | A,A,A,A, A,,A,,A,,A,, | D,2 z2 (B,A,).G,.F, | %124
 .F,2 .[B,,F,]2 ([^D,F,]2 [B,,G,]2) | x4 (A, x) x2 | B,,2 (F,2 G,2 E,2) | A,4 z4 | %128
 z2 .B,2 .^D2 .B,2 | x4 (E x) x2 | (B,F,G,E,) A,4 | D2 D,2 F,2 A,,2 | D4{D} CB,/A,/ B,C | %133
 .D z x2 x4 | D4{D} CB,/A,/ (B,/D/).C/.E/ | D,2 F2 F,2 F2 | G,2 G2 G,,A,,B,,C, | %137
 D,D,F,F, G,G,A,A, | F(A,F,A,) (F,A,F,A,) | (G,DB,D) (CG,E,G,) | %140
 z/ F,/E,/F,/ G,/F,/E,/F,/ z/ A,/G,/A,/ B,/A,/G,/A,/ | %141
 z/ B,/A,/B,/ A,/G,/F,/G,/ z/ E,/D,/E,/ F,/E,/D,/C,/ | D2 z2 D,2 z2 | D2 z2 D,2 z2 | %144
 D,2 z2 A,2 z2 | F,2 z2 z4 | z2 D2 D,2 D2 | G,2 G,2 !fermata!^G,2 z [G,B,] | %148
 A,2 z A,, (D,F,).A,.A, | D,2 z .D, .C,.D,.E,.F, | x2 F>F F2{F} ED/E/ | [D,D]2 z .D, .C,.D,.E,.F, | %152
 x2 F>F F2{F} ED/E/ | [D,D]2 D,>D, D,2 z2 |] %154
V:3
 x8 | x8 | x8 | x8 | x8 | x8 | x8 | x8 | A,8 | A8 | x8 | x8 | x8 | x4 F,(DC=C) | x8 | x4 (F2 E2) | %16
 x8 | x8 | x6{F} =ED/C/ | x8 | x8 | x8 | x8 | x8 | x8 | x8 | x8 | x8 | x8 | x8 | x8 | x8 | x8 | %33
 x8 | x8 | x8 | x8 | x8 | x8 | x8 | x8 | x8 | x8 | x8 | x8 | x8 | x8 | x8 | x8 | x8 | %50
 [CE][CE][CE][CE] DD[DE][DE] | x8 | x8 | x8 | E2 z2 z4 | x8 | E2 E2 F2 E>D | x8 | x8 | x8 | x8 | %61
 x8 | x8 | x8 | x8 || x8 | x8 | x8 | x8 | x8 | x8 | x8 | x8 | x8 | x3 B/c/ d2 (A2 | %75
 A)(=FDF) (E=CDB,) | x8 | x8 | x8 | x8 | x8 | x8 | x8 | x8 | x8 | x8 | x8 | x8 | x4 E3 E | %89
 _E2 .E.E x4 | x8 | x8 | (D4 D)E(E=F) | x8 | x8 | x8 | x8 | x8 | x8 | x8 | x8 | x8 | x8 | x8 | %104
 x4 AGFD | x8 | x8 | x8 | x8 | x8 | x4 .D2 .C2 | x8 | x4 .D2 .C2 | x8 | x8 | x8 | x8 | x8 | x8 | %119
 (D4 E4) | F4 x4 | x8 | x8 | x8 | x8 | x4 z E.D.C | x8 | A4 x4 | x8 | x4 z e.d.c | x8 | x8 | x8 | %133
 x .D A2 z4 | x8 | x8 | (Bd).B.B (D3 E) | A,2 A2 B2 A>G | x8 | x8 | x8 | x8 | x8 | x8 | x8 | x8 | %146
 x8 | D2 [DE]2 [DE]2 x2 | x8 | x8 | x2 [Aa]>[Aa] [Aa]2 A2 | x8 | x2 [Aa]>[Aa] [Aa]2 A2 | x8 |] %154
V:4
 x8 | x8 | x8 | x8 | x8 | x8 | x8 | x8 | x8 | x8 | x8 | x8 | x8 | x8 | x8 | x8 | x8 | %17
 G,4 [^G,B,]4 | x8 | x8 | x8 | x8 | x8 | D, z B,, z ^G,, z ^G, z | x8 | x8 | x8 | x8 | x8 | x8 | %30
 x8 | x8 | x8 | x8 | x8 | x8 | (!>!^A,4 B,4) | (^G,4 A,4) | (F,4 ^G,2) z G, | x8 | x8 | x8 | x8 | %43
 x8 | x8 | x8 | x8 | x8 | x8 | x8 | x8 | x2 A,2 E2 E,2 | x2 A,2 E2 E,2 | x2 A,2 E2 E,2 | x8 | x8 | %56
 x8 |[K:treble] A,8 | A,8 |{/A,,} A,8 | A,8 | A,2 z2 A,2 z2 | A,2 z2 A,2 z2 |[K:bass] x8 | x8 || %65
 x8 | x8 | x8 | x8 | x8 | x8 | x8 | z2 G,2 =F,2 E,2 | x8 | A,2 G,2 =F,2 E,2 | x8 | x8 | x8 | x8 | %79
 x8 | x8 | x8 | x8 | x8 | x8 | x8 | x8 | x8 | x8 | x8 | x8 | x8 | x8 | x8 | x8 | x8 | x8 | x8 | %98
 x8 | x8 | x8 | x8 | x8 | x8 | x8 | x8 | x8 | x8 | x8 | x8 | x8 | x8 | x8 | x8 | x8 | x8 | x8 | %117
 x8 | x8 | x8 | x8 | x8 | x8 | x8 | x8 | E,4 (C,2 A,,2) | x8 | x8 | x8 | E,4 (B,2 A,2) | x8 | x8 | %132
 x2 D,2 A,2 A,2 | x2 D,2 A,2 A,,2 | x2 D,2 A,2 A,2 | x8 | x8 | x8 | D,8 | D,8 |{D,,} D,8 | D,8 | %142
 D,3 E,/F,/ G,3 F,/E,/ | D,3 E,/F,/ G,3 F,/E,/ | x8 | x8 | x8 | x8 | x8 | x8 | D,2 D2 A,2 A,2 | %151
 x8 | D,2 D2 A,2 A,2 | x8 |] %154

